img/image/design/footer-feedback-question-graphic.svg

<svg width="49" height="90" viewBox="0 0 49 90" fill="none" xmlns="http://www.w3.org/2000/svg">
<path d="M23.1653 61.061C19.6731 61.061 16.7308 58.1742 17.6826 54.8142C17.9822 53.7568 18.3618 52.7292 18.8215 51.7314C20.1411 48.867 21.754 46.4118 23.6602 44.3658C25.5663 42.238 27.4724 40.233 29.3785 38.3507C31.2847 36.3865 32.8975 34.2996 34.2172 32.09C35.5368 29.7985 36.1966 27.4252 36.1966 24.97C36.1966 21.5327 35.1336 18.9139 33.0075 17.1134C30.8814 15.2311 28.0222 14.29 24.4299 14.29C20.9842 14.29 18.0151 15.2721 15.5225 17.2362C14.975 17.6676 14.4612 18.1384 13.9809 18.6487C11.22 21.5826 6.77507 23.4628 3.36868 21.3119C0.95779 19.7895 -0.144943 16.7614 1.20753 14.2512C3.19453 10.5635 5.84011 7.58927 9.14427 5.32861C13.763 2.13688 18.9681 0.541016 24.7598 0.541016C31.2847 0.541016 36.9297 2.62791 41.695 6.8017C46.4604 10.9755 48.843 16.7452 48.843 24.1107C48.843 27.5479 48.1832 30.7806 46.8636 33.8086C45.544 36.7548 43.9311 39.2918 42.0249 41.4196C40.1188 43.5475 38.2127 45.6344 36.3066 47.6803C34.4004 49.6445 32.7876 51.7723 31.4679 54.0638C31.2935 54.3667 31.1305 54.6704 30.9791 54.9748C29.4239 58.1016 26.6575 61.061 23.1653 61.061ZM29.0486 86.8403C27.4357 88.6408 25.493 89.541 23.2203 89.541C20.9476 89.541 19.0048 88.6408 17.3919 86.8403C15.7791 85.0399 14.9726 82.8711 14.9726 80.3341C14.9726 77.7971 15.7424 75.6284 17.282 73.8279C18.8948 72.0275 20.8743 71.1272 23.2203 71.1272C25.493 71.1272 27.4357 72.0275 29.0486 73.8279C30.6615 75.6284 31.4679 77.7971 31.4679 80.3341C31.4679 82.8711 30.6615 85.0399 29.0486 86.8403Z" fill="black"/>
</svg>

<svg width="49" height="90" fill="none" xmlns="http://www.w3.org/2000/svg"><path d="M23.165 61.061c-3.492 0-6.434-2.887-5.482-6.247.3-1.057.679-2.085 1.139-3.083 1.32-2.864 2.932-5.32 4.838-7.365a135.735 135.735 0 0 1 5.718-6.015c1.907-1.965 3.52-4.051 4.84-6.261 1.319-2.292 1.979-4.665 1.979-7.12 0-3.437-1.063-6.056-3.19-7.857-2.126-1.882-4.985-2.823-8.577-2.823-3.446 0-6.415.982-8.907 2.946a14.09 14.09 0 0 0-1.542 1.413c-2.761 2.934-7.206 4.814-10.612 2.663-2.411-1.523-3.514-4.55-2.161-7.06 1.987-3.689 4.632-6.663 7.936-8.923C13.763 2.137 18.968.54 24.76.54c6.525 0 12.17 2.087 16.935 6.26 4.765 4.175 7.148 9.944 7.148 17.31 0 3.437-.66 6.67-1.98 9.698-1.319 2.946-2.932 5.483-4.838 7.61a433.358 433.358 0 0 1-5.718 6.261 32.278 32.278 0 0 0-4.84 6.384c-.173.303-.336.606-.488.91-1.555 3.128-4.322 6.087-7.814 6.087Zm5.884 25.78c-1.613 1.8-3.556 2.7-5.829 2.7-2.272 0-4.215-.9-5.828-2.7-1.613-1.801-2.42-3.97-2.42-6.507 0-2.537.77-4.706 2.31-6.506 1.613-1.8 3.592-2.7 5.938-2.7 2.273 0 4.216.9 5.829 2.7 1.613 1.8 2.419 3.97 2.419 6.506 0 2.537-.806 4.706-2.42 6.506Z" fill="#000"/></svg>
